X: 220
T:Rambling Pitchfork, The
N: page 73
N: heptatonic
N: matches 31
R:jig
E:10
M:6/8
I:speed 350
K:D
DE|"D"~F3 AFF|"G"=cFF "A"AFD|"G"~G3 "A"ABc|"Bm"ded "A7"cAG|\
"D"EFF AFF|=cFF AFD|"G"GFG BGB|"A"AFD "D"D2:|
A|"D"d2e fdf|"A"ecA AFA|"D"d2e "Bm"fed|"F#m"(4fgaf "A7"gfe|\
"D"d2e fdf|"A"ecA "F#m"AGF|"Em"~G3 "G"BGB|"A"AFD "D"D2:|
